X:55
T:Trip to the Jubilee. Ru1.055
%%VWML:RutherfordVol1-2248-p28-0p28
Z:Transcription by Village Music Project, Steve Mansfield July 2015
F:http://www.village-music-project.org.uk/
F:http://www.vwml.org/record/RutherfordVol1/2248/p28
M:2/4
Q:1/2=80
K:G
Gd2c|BcAB|Gd2c|B2A2|Gd2c|BcAB|GAEF|G2D2 :|
|: BG- GA/B/|cA- AB/c/|BG- GA/B/|c2A2|BG- GA/B/|cA de/f/|gB AB/A/|G2D2 :|
|: g/f/g/a/ gB|dBcA|g/f/g/a/ gd|B2A2|g/f/g/a/ gd|de/d/ cd/c/|Bc/B/ AB/A/|G2D2 |]
W:
W: The first Man sets to the 2d. Wo. & turns her .|  The
W: first Wo. does the same with the 2d. Man :|  Foot it
W: all fours & Hands across half round .||  The same back
W: again :|| Gallop down & up again & cast off .|||  Right
W: Hand and Left :|||
T:Lucy's Delight. Ru1.056
L:1/8
B:RUTHERFORD Complete Collection of 200 Country Dances Vol.1; London: David & John Rutherford 1756.
Z:vmp.Mike Hicken 2015 www.village-music-project.org.uk
M:C|
Q:1/2=80
K:G
d/c/B/A/ Gd edcB|edcB gdcB|d/c/B/A/ Gd edcB|cdBc A2D2 :|
|: d/c/B/A/ Gd ecBg|d/c/B/A/ Gd cA=fA|d/c/B/A/ Gd ecBg|c>dcA GG/G/ G2 :|
|:BG A/B/c/A/ BG A/B/c/A/|BGcA =FA A/B/c/A/| BG A/B/c/A/ BG A/B/c/A/|c>dc>A GG/G/ G2 |]
W:
W: The first Cu. sets to the 2d. Wo. and Hands round
W: Three .|   The same to the Man :|  Cross over two
W: Cu. .||  Lead up to the Top Foot it & and cast off
W: :||  Hands round four at Bottom .|||  Right Hand
W: and Left atTop |||
